X: 1040
T: Yellow Barber
B: jims roots
M:C|
L:1/8
Q: 1/4=100
K:D
V:1 
%S:Fiddlers Fakebook ABC'd by Jim Kendrick
|: DB, ||"D"A,G,A,B, DEDB, | A,B,DE FD3 | "A7"[E3A][DA][E2A] [EA][FA] | [GA][FA][EA][GA] "D"[FA] [D3A] |
dB||"D"ABdc dedB | Acde- fded | "A7"cdef edcd | edef gfeg |
"D" (3fgf ed dBAd | "G"BAFB ABde | "D"fafe dBAG | "A7"FDEF "D"D2 :|
V:FA 
V:A2A 
 [AB] [A2A] Ad | "(G)"BAFG "D"A2f2- | (3fgf ec dBAG | "A7"FDEF "D"D2 :|
% abcbook-tune_id 6298c297bb275c6af2698e2a


% abcbook-boost 0
% abcbook-tablature 
% abcbook-transpose 
% abcbook-lastupdated 1654178457135
% abcbook-soundfonts 
% abcbook-repeats 1


